svg/ribbon_outline.svg

<?xml version="1.0" encoding="UTF-8" standalone="no"?>
<!-- Created with Inkscape (http://www.inkscape.org/) -->
<svg id="svg8" xmlns:rdf="http://www.w3.org/1999/02/22-rdf-syntax-ns#" xmlns="http://www.w3.org/2000/svg" xmlns:osb="http://www.openswatchbook.org/uri/2009/osb" height="48" width="48" version="1.1" xmlns:cc="http://creativecommons.org/ns#" viewBox="0 0 12.7 12.7" xmlns:dc="http://purl.org/dc/elements/1.1/">
 <title id="title4753">UIO-icon</title>
 <metadata id="metadata5">
  <rdf:RDF>
   <cc:Work rdf:about="">
    <dc:format>image/svg+xml</dc:format>
    <dc:type rdf:resource="http://purl.org/dc/dcmitype/StillImage"/>
    <dc:title>UIO-icon</dc:title>
    <dc:creator>
     <cc:Agent>
      <dc:title>Joaquín Urbano</dc:title>
     </cc:Agent>
    </dc:creator>
    <dc:rights>
     <cc:Agent>
      <dc:title>GPL</dc:title>
     </cc:Agent>
    </dc:rights>
   </cc:Work>
  </rdf:RDF>
 </metadata>
 <g id="layer1" fill="#333" transform="translate(0,-284.3)">
  <path id="path899" d="m24.098 5.0234c-1.6618-0.015118-3.3634 0.16022-5.1133 0.56055 0.66227 2.8009 1.4701 4.0666 2.5059 5.9199 1.3104-0.41151 3.4669-0.67149 4.7773-0.056641 1.4196-2.1386 2.1132-4.0476 2.7031-5.8672-1.592-0.3435-3.212-0.5423-4.873-0.5566zm-0.005859 0.49023c1.4389 0.026157 2.8286 0.20787 4.1973 0.46094-0.40265 1.1913-0.76216 2.3309-2.2246 4.8398-1.576-0.403-2.982-0.269-4.323 0.061-0.85-1.4318-1.607-2.9954-2.135-4.8965 1.559-0.3616 3.046-0.491 4.485-0.4648zm-5.694 0.6524-1.044 3.1465c-0.81719 2.4625-1.0607 3.47-1.1289 4.6094-0.10084 1.6841-0.15463 1.5452 1.7285 4.4336 0.7572 1.1615 1.4181 2.1132 1.4707 2.1152 0.11608 0.003742 3.5938-4.9647 3.5938-5.1348 0-0.067276-0.69481-1.2058-1.541-2.5312-1.75-2.739-2.719-4.6755-2.93-5.8392zm11.207 0-0.16016 0.85352c-0.19858 1.0441-1.2746 3.1976-2.834 5.6816-6.0471 8.8473-10.839 15.554-17.295 24.695 1.3087 1.8441 2.709 3.861 4.166 5.4629 6.3791-10.703 12.895-16.793 18.275-27.494 0.23548-1.2554-0.034024-2.7219-1.0938-5.9629zm0.072266 1.541 1.3418 4.6953c0.16531 0.74759 0.37579 1.37 0.35352 2.6211l-1.0723 2.0312c-0.54061 0.95079-1.1726 2.0399-1.8301 3.166l-2.7617 4.2383-7.7578 10.664c-1.2692 1.8355-2.7089 3.6923-4.5449 6.8672-1.6111-1.8061-2.385-3.1077-3.4629-4.5938l10.325-14.629 0.183-0.262 5.102-7.348 0.177-0.265c1.105-1.6228 2.0993-3.1935 2.9336-4.6914 0.27689-0.55399 0.5463-1.0749 1.0137-2.4922zm-11.359 0.0196c0.283 1.8698 2.259 4.7664 4.108 7.5854l-2.987 4.376-2.263-3.504-0.162-0.278c-0.494-0.755-0.218-1.604-0.244-2.416l0.027-0.318c-0.005-1.035 1.332-4.1573 1.521-5.4454zm10.297 15.443-1.74 2.568c-0.95785 1.4126-1.7759 2.6895-1.8184 2.8379-0.042667 0.14891 0.7234 1.4433 1.7012 2.8789 2.762 4.0008 5.049 7.5782 7.8691 11.521 1.4838-1.9202 2.538-3.4396 4.0566-5.5586-3.3555-4.7497-6.7124-9.4987-10.068-14.248zm0 0.85547 9.4395 13.387-3.4062 4.7012c-3.05-4.406-6.08-8.86-9.041-13.482z" transform="matrix(.26458 0 0 .26458 0 284.3)" stroke-width="3.7795"/>
 </g>
</svg>

<svg width="48" height="48" viewBox="0 0 48 48" fill="none" xmlns="http://www.w3.org/2000/svg">
<path d="M24.0978 5.02336C22.436 5.00824 20.7344 5.18358 18.9845 5.5839C19.6468 8.38477 20.4546 9.65045 21.4904 11.5037C22.8008 11.0922 24.9572 10.8322 26.2676 11.4471C27.6872 9.30851 28.3808 7.39954 28.9707 5.57996C27.3787 5.23647 25.7587 5.03767 24.0978 5.02337V5.02336ZM24.0919 5.51358C25.5308 5.53974 26.9205 5.72145 28.2891 5.97452C27.8865 7.1658 27.527 8.30539 26.0646 10.8143C24.4886 10.4113 23.0826 10.5453 21.7416 10.8753C20.8916 9.44347 20.1346 7.87989 19.6066 5.97882C21.1656 5.61722 22.6526 5.48782 24.0916 5.51402L24.0919 5.51358ZM18.398 6.16597L17.354 9.31243C16.5368 11.7749 16.2933 12.7824 16.2251 13.9218C16.1243 15.6059 16.0705 15.467 17.9536 18.3553C18.7108 19.5168 19.3717 20.4685 19.4243 20.4705C19.5403 20.4742 23.018 15.5059 23.018 15.3358C23.018 15.2685 22.3232 14.13 21.477 12.8046C19.727 10.0656 18.7581 8.12915 18.5471 6.96546L18.398 6.16597ZM29.6048 6.16597L29.4447 7.01948C29.2461 8.06357 28.1701 10.217 26.6107 12.701C20.5637 21.5482 15.7718 28.2548 9.31592 37.3957C10.6246 39.2398 12.0249 41.2567 13.4819 42.8585C19.8609 32.1557 26.3767 26.0657 31.7566 15.3649C31.9921 14.1095 31.7226 12.643 30.6629 9.40205L29.6048 6.16597ZM29.6771 7.70696L31.0189 12.4022C31.1842 13.1498 31.3947 13.7722 31.3724 15.0233L30.3001 17.0544C29.7595 18.0052 29.1275 19.0943 28.47 20.2204L25.7084 24.4586L17.9507 35.1225C16.6815 36.958 15.2418 38.8148 13.4058 41.9896C11.7947 40.1835 11.0208 38.882 9.94296 37.3959L20.2678 22.7671L20.4508 22.5051L25.5528 15.1572L25.7298 14.8922C26.8347 13.2694 27.829 11.6987 28.6633 10.2008C28.9402 9.64684 29.2096 9.12594 29.677 7.70866L29.6771 7.70696ZM18.3182 7.72656C18.6012 9.59633 20.5772 12.4929 22.4262 15.3119L19.4392 19.6878L17.1762 16.1838L17.0142 15.9059C16.5203 15.1509 16.7963 14.3019 16.7703 13.4899L16.7973 13.1719C16.7923 12.1369 18.1292 9.01464 18.3182 7.72656ZM28.6151 23.1694L26.8751 25.7373C25.9173 27.1499 25.0992 28.4268 25.0567 28.5752C25.0141 28.7241 25.7801 30.0185 26.7579 31.4541C29.5199 35.4548 31.8069 39.0322 34.6269 42.9749C36.1107 41.0547 37.1649 39.5354 38.6835 37.4164C35.328 32.6667 31.9712 27.9178 28.6156 23.1686L28.6151 23.1694ZM28.6151 24.0248L38.0545 37.4117L34.6483 42.1128C31.5984 37.7068 28.5684 33.2529 25.6074 28.631L28.6151 24.0248Z" fill="#333333"/>
</svg>
